X: 34047
T: Reel De Gaspé
R: reel
M: 4/4
K: Dmajor
Ad|:"D"f2ef e2d2|DFAd B2A2|"G"gefg f2e2|BABc "A7"B2A2|
"D"f2ef e2d2|DFAd B2A2|"G"gefg f2ed|1 "A7"B2c2 "D"d4:|2 "A7"B2c2 "D"d3f||
|:"A7"edef g2fe|"D"fefga3f|"Em"e2f2 gfe2|"G"BABc "A7"B2A2|
"A7"e3 f gfge|"D"f2g2a3f|"Em"e2f2 gfed|1 "A7"B2c2"D"d3f:|2 "A7"B2c2 "D"d4||

